img/logos/riak.svg

<?xml version="1.0" encoding="UTF-8" standalone="no"?>
<svg width="256px" height="254px" viewBox="0 0 256 254" version="1.1" xmlns="http://www.w3.org/2000/svg" xmlns:xlink="http://www.w3.org/1999/xlink" preserveAspectRatio="xMinYMin meet">
	<g>
		<path d="M137.452332,220.044843 C137.432337,216.917012 136.92749,176.74537 124.180672,142.177422 C110.908188,106.183924 88.4112395,76.0377156 88.4112395,76.0377156 C88.4112395,76.0377156 134.978992,104.383304 156.350216,128.004627 C174.765499,148.357627 190.8436,180.404562 194.938955,188.880274 L194.938955,188.880274 C190.500002,192.15788 187.620798,197.426757 187.620798,203.367448 C187.620798,213.3073 195.679044,221.365547 205.617547,221.365547 C215.5574,221.365547 223.615646,213.3073 223.615646,203.367448 C223.615646,193.731707 216.040886,185.863409 206.520543,185.392959 C203.6753,178.125178 191.637817,149.750133 167.37395,122.380053 C139.253776,90.6599896 100.108519,69.5128309 100.108519,69.5128309 C100.108519,69.5128309 142.402836,83.0107299 163.77406,92.4592597 C182.744855,100.846525 214.125739,118.274393 220.935844,122.083597 C220.338997,123.873624 220.015756,125.788707 220.015756,127.779212 C220.015756,137.719065 228.074002,145.777311 238.012506,145.777311 C247.952358,145.777311 256.010604,137.719065 256.010604,127.779212 C256.010604,117.840709 247.952358,109.782463 238.012506,109.782463 C234.226226,109.782463 230.712844,110.952027 227.813964,112.949551 L227.813964,112.949551 C220.893915,108.394374 192.578516,90.5603754 149.82668,74.2370963 C100.333934,55.3400369 63.8896061,48.8165025 63.8896061,48.8165025 L57.5901365,62.9892965 C57.5901365,62.9892965 81.5219118,78.8493277 105.143236,130.141345 C126.813169,177.196058 125.407824,212.606918 125.02774,218.136465 C116.839808,219.824378 110.682773,227.075071 110.682773,235.762404 C110.682773,245.702258 118.741019,253.760504 128.679523,253.760504 C138.619375,253.760504 146.677621,245.702258 146.677621,235.762404 C146.677621,229.008711 142.956436,223.123294 137.452332,220.044843 Z" fill="#3D4C67"></path>
		<path d="M63.890281,51.2913425 C63.890281,41.8482123 56.2356224,34.1935536 46.7924922,34.1935536 C37.3507117,34.1935536 29.696053,41.8482123 29.696053,51.2913425 C29.696053,60.733123 37.3507117,68.3891314 46.7924922,68.3891314 C56.2356224,68.3891314 63.890281,60.733123 63.890281,51.2913425" fill="#F6861A" transform="translate(46.793167, 51.291343) scale(1, -1) translate(-46.793167, -51.291343) "></path>
		<path d="M146.677621,18.4462294 C146.677621,8.50637646 138.619375,0.449480451 128.679523,0.449480451 C118.739669,0.449480451 110.682773,8.50637646 110.682773,18.4462294 C110.682773,28.3847325 118.739669,36.4429784 128.679523,36.4429784 C138.619375,36.4429784 146.677621,28.3847325 146.677621,18.4462294" fill="#3D4C67" transform="translate(128.680197, 18.446229) scale(1, -1) translate(-128.680197, -18.446229) "></path>
		<path d="M223.615646,52.1909766 C223.615646,42.2511237 215.5574,34.1942277 205.617547,34.1942277 C195.679044,34.1942277 187.620798,42.2511237 187.620798,52.1909766 C187.620798,62.1294797 195.679044,70.1877255 205.617547,70.1877255 C215.5574,70.1877255 223.615646,62.1294797 223.615646,52.1909766" fill="#3D4C67" transform="translate(205.618222, 52.190977) scale(1, -1) translate(-205.618222, -52.190977) "></path>
		<path d="M68.3898057,204.718588 C68.3898057,194.778735 60.3315599,186.72049 50.391707,186.72049 C40.4532038,186.72049 32.394958,194.778735 32.394958,204.718588 C32.394958,214.657092 40.4532038,222.715337 50.391707,222.715337 C60.3315599,222.715337 68.3898057,214.657092 68.3898057,204.718588" fill="#3D4C67" transform="translate(50.392382, 204.717913) scale(1, -1) translate(-50.392382, -204.717913) "></path>
		<path d="M35.9948477,127.780562 C35.9948477,117.840709 27.9366019,109.782463 17.996749,109.782463 C8.0582458,109.782463 0,117.840709 0,127.780562 C0,137.719065 8.0582458,145.777311 17.996749,145.777311 C27.9366019,145.777311 35.9948477,137.719065 35.9948477,127.780562" fill="#3D4C67" transform="translate(17.997424, 127.779887) scale(1, -1) translate(-17.997424, -127.779887) "></path>
	</g>
</svg>

<svg width="256" height="254" viewBox="0 0 256 254" xmlns="http://www.w3.org/2000/svg" preserveAspectRatio="xMinYMin meet"><path d="M137.452 220.045c-.02-3.128-.525-43.3-13.27-77.868-13.274-35.993-35.77-66.14-35.77-66.14s46.567 28.346 67.938 51.968c18.415 20.353 34.494 52.4 38.59 60.875-4.44 3.278-7.32 8.547-7.32 14.487 0 9.94 8.06 18 17.998 18 9.94 0 17.998-8.06 17.998-18 0-9.635-7.575-17.504-17.095-17.974-2.845-7.268-14.882-35.643-39.146-63.013-28.12-31.72-67.265-52.867-67.265-52.867s42.293 13.498 63.664 22.946c18.97 8.387 50.352 25.814 57.162 29.624-.597 1.79-.92 3.705-.92 5.695 0 9.94 8.058 17.997 17.997 17.997 9.94 0 17.998-8.058 17.998-17.998 0-9.94-8.058-17.998-17.997-17.998-3.787 0-7.3 1.17-10.2 3.168-6.92-4.556-35.234-22.39-77.986-38.713-49.493-18.897-85.937-25.42-85.937-25.42l-6.3 14.172s23.932 15.86 47.553 67.15c21.67 47.056 20.265 82.467 19.885 87.996-8.188 1.688-14.345 8.94-14.345 17.626 0 9.94 8.058 18 17.997 18 9.94 0 17.998-8.06 17.998-18 0-6.753-3.722-12.64-9.226-15.717z" fill="#3D4C67"/><path d="M63.89 51.29c0 9.444-7.654 17.1-17.098 17.1-9.44 0-17.096-7.656-17.096-17.1 0-9.44 7.655-17.096 17.096-17.096 9.444 0 17.098 7.656 17.098 17.097" fill="#F6861A"/><path d="M146.678 18.446c0 9.94-8.06 17.997-17.998 17.997-9.94 0-17.997-8.057-17.997-17.997C110.683 8.508 118.74.45 128.68.45s17.998 8.058 17.998 17.996M223.616 52.19c0 9.94-8.06 17.998-17.998 17.998-9.94 0-17.997-8.057-17.997-17.997 0-9.938 8.06-17.996 17.998-17.996 9.94 0 17.998 8.058 17.998 17.997M68.39 204.717c0 9.94-8.058 17.998-17.998 17.998-9.94 0-17.997-8.058-17.997-17.998 0-9.938 8.058-17.997 17.997-17.997 9.94 0 17.998 8.06 17.998 17.997M35.995 127.78c0 9.94-8.058 17.997-17.998 17.997C8.057 145.777 0 137.72 0 127.78c0-9.94 8.058-17.998 17.997-17.998 9.94 0 17.998 8.06 17.998 17.997" fill="#3D4C67"/></svg>
